X: 19982
T: Jim Donoghue's
R: reel
M: 4/4
K: Dmajor
|:AF ~F2 dF~F2|AF~F2 EFGB|AF ~F2 dBAF|EDEF DEFB|
AF ~F2 dF~F2|AF ~F2 ABde|f3e dBAF|1 EDEF DEFG:|2 EDEF D3z||
|:dffe f3e|dfed BAFA|Beed e2 de|fedf efdB|
Affe fgfe|dcdA BAFB|ABde fdAF|1 EDEF D3z|2 EDEF DEFG||

